public/img/icons/opetussuunnitelma-valittu.svg

<?xml version="1.0" encoding="UTF-8"?>
<svg width="20px" height="20px" viewBox="0 0 20 20" version="1.1" xmlns="http://www.w3.org/2000/svg" xmlns:xlink="http://www.w3.org/1999/xlink">
    <!-- Generator: Sketch 61 (89581) - https://sketch.com -->
    <title>l</title>
    <desc>Created with Sketch.</desc>
    <defs>
        <path d="M18.0079443,0 C19.1056189,0 20.0037162,0.909297126 19.999881,2.02062444 C19.9880861,5.39495132 19.999881,13.0158117 19.999881,16.4036428 C19.9977121,18.3889616 18.4085967,19.9978417 16.4476676,20 L2.26130335,20 L2.28696254,19.999 L2.25749254,20 L2.32696254,19.997 L2.39496254,19.995 L2.36230249,19.994474 C0.616545017,19.8937617 0.0416430748,18.4291399 0.00218288526,16.6008743 L-2.50535346e-05,16.4036428 L-2.50535346e-05,10.1030049 C-0.0036854394,9.04219246 0.803145134,8.09039972 1.8311933,8.00606487 L1.97949858,8 L4,8 L4,2 C4,0.878569711 4.89234655,0 6,0 L18.0079443,0 Z M18.0040719,2 L6,2 L6,18 L15.4486968,18 C16.0760201,17.9993095 16.6504472,17.749444 17.0950995,17.3695235 C17.6503352,16.8951183 18.0032206,16.1858144 18.0040719,15.3933452 L18.0040719,2 Z M4,10 L2.0512934,10 L2.0512934,16.0512512 C2.0526324,17.2293702 2.14267052,17.8934561 3.37436949,17.8947368 L3.99996254,17.894 L4,10 Z M13,13 L13,15 L8,15 L8,13 L13,13 Z M16,9 L16,11 L8,11 L8,9 L16,9 Z M16,5 L16,7 L8,7 L8,5 L16,5 Z" id="path-1"></path>
    </defs>
    <g id="l" stroke="none" stroke-width="1" fill="none" fill-rule="evenodd">
        <g id="Ikonit/Opetussunnitelma">
            <mask id="mask-2" fill="white">
                <use xlink:href="#path-1"></use>
            </mask>
            <use id="Mask" fill="#000000" fill-rule="nonzero" xlink:href="#path-1"></use>
            <g id="Värit/Tumma-harmaa" mask="url(#mask-2)" fill="#575757" fill-rule="evenodd">
                <rect id="Rectangle" x="0" y="0" width="20" height="20"></rect>
            </g>
        </g>
    </g>
</svg>

<svg width="20" height="20" xmlns="http://www.w3.org/2000/svg" xmlns:xlink="http://www.w3.org/1999/xlink">
    <defs>
        <path d="M18.008 0C19.106 0 20.004.91 20 2.02c-.012 3.375 0 10.996 0 14.384-.002 1.985-1.591 3.594-3.552 3.596H2.26l.026-.001-.03.001.07-.003.068-.002h-.033C.617 19.893.042 18.428.002 16.6L0 16.404v-6.301c-.004-1.06.803-2.013 1.831-2.097L1.98 8H4V2c0-1.121.892-2 2-2h12.008zm-.004 2H6v16h9.449c.627 0 1.201-.25 1.646-.63a2.596 2.596 0 00.91-1.977V2zM4 10H2.051v6.051c.002 1.178.092 1.842 1.323 1.844L4 17.894V10zm9 3v2H8v-2h5zm3-4v2H8V9h8zm0-4v2H8V5h8z" id="a"/>
    </defs>
    <g fill="none" fill-rule="evenodd">
        <mask id="b" fill="#fff">
            <use xlink:href="#a"/>
        </mask>
        <use fill="#000" fill-rule="nonzero" xlink:href="#a"/>
        <g mask="url(#b)" fill="#575757">
            <path d="M0 0h20v20H0z"/>
        </g>
    </g>
</svg>
